common/app/assets/images/global/double-arrow-right-mask.svg

<svg xmlns="http://www.w3.org/2000/svg" width="12" height="14"><path fill="#EDEDE7" d="M12 7.3v6.7h-12v-14h12v6.7l-5.3-6.7-.5.4 3 6.6-3 6.6.4.4 5.4-6.7zm-5.9-.3l-5.6-7-.5.4 3 6.6-3 6.6.5.4 5.6-7z"/></svg>

<svg xmlns="http://www.w3.org/2000/svg" width="12" height="14"><path fill="#EDEDE7" d="M12 7.3V14H0V0h12v6.7L6.7 0l-.5.4 3 6.6-3 6.6.4.4L12 7.3zM6.1 7L.5 0 0 .4 3 7l-3 6.6.5.4 5.6-7z"/></svg>
